public/assets/socials/linkedin.svg

<svg fill="none" height="45" viewBox="0 0 45 45" width="45" xmlns="http://www.w3.org/2000/svg"><path d="m35.625 0h-26.25c-5.17687 0-9.375 4.19813-9.375 9.375v26.25c0 5.1769 4.19813 9.375 9.375 9.375h26.25c5.1787 0 9.375-4.1981 9.375-9.375v-26.25c0-5.17687-4.1963-9.375-9.375-9.375zm-20.625 35.625h-5.625v-20.625h5.625zm-2.8125-23.0025c-1.8112 0-3.28125-1.4813-3.28125-3.3075 0-1.82625 1.47005-3.3075 3.28125-3.3075s3.2813 1.48125 3.2813 3.3075c0 1.8262-1.4682 3.3075-3.2813 3.3075zm25.3125 23.0025h-5.625v-10.5075c0-6.315-7.5-5.8369-7.5 0v10.5075h-5.625v-20.625h5.625v3.3094c2.6175-4.8488 13.125-5.2069 13.125 4.6425z" fill="#fff"/></svg>

<svg width="45" height="45" viewBox="0 0 45 45" fill="none" xmlns="http://www.w3.org/2000/svg">
<path d="M35.625 0H9.375C4.19813 0 0 4.19813 0 9.375V35.625C0 40.8019 4.19813 45 9.375 45H35.625C40.8037 45 45 40.8019 45 35.625V9.375C45 4.19813 40.8037 0 35.625 0ZM15 35.625H9.375V15H15V35.625ZM12.1875 12.6225C10.3763 12.6225 8.90625 11.1412 8.90625 9.315C8.90625 7.48875 10.3763 6.0075 12.1875 6.0075C13.9987 6.0075 15.4688 7.48875 15.4688 9.315C15.4688 11.1412 14.0006 12.6225 12.1875 12.6225ZM37.5 35.625H31.875V25.1175C31.875 18.8025 24.375 19.2806 24.375 25.1175V35.625H18.75V15H24.375V18.3094C26.9925 13.4606 37.5 13.1025 37.5 22.9519V35.625Z" fill="white"/>
</svg>
